icons/bold.svg

<svg xmlns="http://www.w3.org/2000/svg" viewBox="0 0 24 24">
  <path fill-rule="evenodd" d="M5.584 20h8.688c3.048 0 4.656-1.92 4.656-4.32 0-2.016-1.368-3.672-3.072-3.936 1.512-.312 2.76-1.656 2.76-3.672 0-2.136-1.56-4.08-4.608-4.08H5.584V20zm3.408-9.6V6.92h4.272c1.152 0 1.872.744 1.872 1.752s-.72 1.728-1.872 1.728H8.992zm0 6.648v-3.72h4.392c1.344 0 2.064.864 2.064 1.872 0 1.152-.768 1.848-2.064 1.848H8.992z"/>
</svg>

<?xml version="1.0" encoding="UTF-8" standalone="no"?>
<svg width="24px" height="24px" viewBox="0 0 24 24" version="1.1" xmlns="http://www.w3.org/2000/svg" xmlns:xlink="http://www.w3.org/1999/xlink">
    <!-- Generator: Sketch 40.1 (33804) - http://www.bohemiancoding.com/sketch -->
    <title>bold</title>
    <desc>Created with Sketch.</desc>
    <defs></defs>
    <g id="Page-1" stroke="none" stroke-width="1" fill="none" fill-rule="evenodd">
        <g id="bold" fill="#777777">
            <path d="M5.584,20 L14.272,20 C17.32,20 18.928,18.08 18.928,15.68 C18.928,13.664 17.56,12.008 15.856,11.744 C17.368,11.432 18.616,10.088 18.616,8.072 C18.616,5.936 17.056,3.992 14.008,3.992 L5.584,3.992 L5.584,20 Z M8.992,10.4 L8.992,6.92 L13.264,6.92 C14.416,6.92 15.136,7.664 15.136,8.672 C15.136,9.68 14.416,10.4 13.264,10.4 L8.992,10.4 Z M8.992,17.048 L8.992,13.328 L13.384,13.328 C14.728,13.328 15.448,14.192 15.448,15.2 C15.448,16.352 14.68,17.048 13.384,17.048 L8.992,17.048 Z" id="B"></path>
        </g>
    </g>
</svg>
